images/28189.svg

<?xml version="1.0" encoding="UTF-8"?>
<svg xmlns="http://www.w3.org/2000/svg" xmlns:xlink="http://www.w3.org/1999/xlink" width="300pt" height="300pt" viewBox="0 0 300 300" version="1.1">
<defs>
<g>
<symbol overflow="visible" id="glyph0-0">
<path style="stroke:none;" d="M 0.640625 2.296875 L 0.640625 -9.171875 L 7.140625 -9.171875 L 7.140625 2.296875 Z M 1.375 1.578125 L 6.421875 1.578125 L 6.421875 -8.4375 L 1.375 -8.4375 Z M 1.375 1.578125 "/>
</symbol>
<symbol overflow="visible" id="glyph0-1">
<path style="stroke:none;" d="M 1.28125 -9.484375 L 6.71875 -9.484375 L 6.71875 -8.390625 L 2.5625 -8.390625 L 2.5625 -5.609375 L 6.3125 -5.609375 L 6.3125 -4.53125 L 2.5625 -4.53125 L 2.5625 0 L 1.28125 0 Z M 1.28125 -9.484375 "/>
</symbol>
<symbol overflow="visible" id="glyph0-2">
<path style="stroke:none;" d="M 1.28125 -9.484375 L 3 -9.484375 L 7.203125 -1.546875 L 7.203125 -9.484375 L 8.453125 -9.484375 L 8.453125 0 L 6.71875 0 L 2.515625 -7.921875 L 2.515625 0 L 1.28125 0 Z M 1.28125 -9.484375 "/>
</symbol>
<symbol overflow="visible" id="glyph0-3">
<path style="stroke:none;" d="M 5.125 -8.609375 C 4.1875 -8.609375 3.441406 -8.257812 2.890625 -7.5625 C 2.347656 -6.875 2.078125 -5.929688 2.078125 -4.734375 C 2.078125 -3.535156 2.347656 -2.585938 2.890625 -1.890625 C 3.441406 -1.203125 4.1875 -0.859375 5.125 -0.859375 C 6.050781 -0.859375 6.785156 -1.203125 7.328125 -1.890625 C 7.878906 -2.585938 8.15625 -3.535156 8.15625 -4.734375 C 8.15625 -5.929688 7.878906 -6.875 7.328125 -7.5625 C 6.785156 -8.257812 6.050781 -8.609375 5.125 -8.609375 Z M 5.125 -9.65625 C 6.445312 -9.65625 7.503906 -9.207031 8.296875 -8.3125 C 9.097656 -7.414062 9.5 -6.222656 9.5 -4.734375 C 9.5 -3.234375 9.097656 -2.035156 8.296875 -1.140625 C 7.503906 -0.253906 6.445312 0.1875 5.125 0.1875 C 3.789062 0.1875 2.722656 -0.253906 1.921875 -1.140625 C 1.128906 -2.035156 0.734375 -3.234375 0.734375 -4.734375 C 0.734375 -6.222656 1.128906 -7.414062 1.921875 -8.3125 C 2.722656 -9.207031 3.789062 -9.65625 5.125 -9.65625 Z M 5.125 -9.65625 "/>
</symbol>
</g>
</defs>
<g id="surface20181">
<rect x="0" y="0" width="300" height="300" style="fill:rgb(100%,100%,100%);fill-opacity:1;stroke:none;"/>
<path style="fill:none;stroke-width:1.2;stroke-linecap:butt;stroke-linejoin:miter;stroke:rgb(20%,80%,80%);stroke-opacity:1;stroke-miterlimit:10;" d="M 61.628906 239.007812 L 62.089844 222.980469 "/>
<path style="fill:none;stroke-width:1.2;stroke-linecap:butt;stroke-linejoin:miter;stroke:rgb(0%,0%,0%);stroke-opacity:1;stroke-miterlimit:10;" d="M 62.089844 222.980469 L 62.550781 206.949219 "/>
<path style=" stroke:none;fill-rule:nonzero;fill:rgb(100%,100%,100%);fill-opacity:1;" d="M 57.628906 231.007812 L 65.628906 231.007812 L 65.628906 247.007812 L 57.628906 247.007812 Z M 57.628906 231.007812 "/>
<g style="fill:rgb(20%,80%,80%);fill-opacity:1;">
  <use xlink:href="#glyph0-1" x="57.628906" y="243.383789"/>
</g>
<path style="fill:none;stroke-width:1.2;stroke-linecap:butt;stroke-linejoin:miter;stroke:rgb(0%,0%,0%);stroke-opacity:1;stroke-miterlimit:10;" d="M 62.550781 206.949219 L 35.25 190.125 "/>
<path style="fill:none;stroke-width:1.2;stroke-linecap:butt;stroke-linejoin:miter;stroke:rgb(0%,0%,0%);stroke-opacity:1;stroke-miterlimit:10;" d="M 63.777344 198.84375 L 41.9375 185.382812 "/>
<path style="fill:none;stroke-width:1.2;stroke-linecap:butt;stroke-linejoin:miter;stroke:rgb(0%,0%,0%);stroke-opacity:1;stroke-miterlimit:10;" d="M 90.773438 191.722656 L 62.550781 206.949219 "/>
<path style="fill:none;stroke-width:1.2;stroke-linecap:butt;stroke-linejoin:miter;stroke:rgb(0%,0%,0%);stroke-opacity:1;stroke-miterlimit:10;" d="M 35.25 190.125 L 36.171875 158.066406 "/>
<path style="fill:none;stroke-width:1.2;stroke-linecap:butt;stroke-linejoin:miter;stroke:rgb(0%,0%,0%);stroke-opacity:1;stroke-miterlimit:10;" d="M 36.171875 158.066406 L 64.394531 142.839844 "/>
<path style="fill:none;stroke-width:1.2;stroke-linecap:butt;stroke-linejoin:miter;stroke:rgb(0%,0%,0%);stroke-opacity:1;stroke-miterlimit:10;" d="M 42.578125 163.1875 L 65.15625 151.003906 "/>
<path style="fill:none;stroke-width:1.2;stroke-linecap:butt;stroke-linejoin:miter;stroke:rgb(0%,0%,0%);stroke-opacity:1;stroke-miterlimit:10;" d="M 64.394531 142.839844 L 91.695312 159.667969 "/>
<path style="fill:none;stroke-width:1.2;stroke-linecap:butt;stroke-linejoin:miter;stroke:rgb(0%,0%,0%);stroke-opacity:1;stroke-miterlimit:10;" d="M 64.394531 142.839844 L 65.316406 110.785156 "/>
<path style="fill:none;stroke-width:1.2;stroke-linecap:butt;stroke-linejoin:miter;stroke:rgb(0%,0%,0%);stroke-opacity:1;stroke-miterlimit:10;" d="M 91.695312 159.667969 L 90.773438 191.722656 "/>
<path style="fill:none;stroke-width:1.2;stroke-linecap:butt;stroke-linejoin:miter;stroke:rgb(0%,0%,0%);stroke-opacity:1;stroke-miterlimit:10;" d="M 84.058594 162.65625 L 83.320312 188.300781 "/>
<path style="fill:none;stroke-width:1.2;stroke-linecap:butt;stroke-linejoin:miter;stroke:rgb(0%,0%,0%);stroke-opacity:1;stroke-miterlimit:10;" d="M 65.316406 110.785156 L 52.621094 100.988281 "/>
<path style="fill:none;stroke-width:1.2;stroke-linecap:butt;stroke-linejoin:miter;stroke:rgb(0%,0%,100%);stroke-opacity:1;stroke-miterlimit:10;" d="M 52.621094 100.988281 L 39.925781 91.195312 "/>
<path style="fill:none;stroke-width:1.2;stroke-linecap:butt;stroke-linejoin:miter;stroke:rgb(0%,0%,0%);stroke-opacity:1;stroke-miterlimit:10;" d="M 91.792969 92.6875 L 65.316406 110.785156 "/>
<path style="fill:none;stroke-width:1.2;stroke-linecap:butt;stroke-linejoin:miter;stroke:rgb(0%,0%,0%);stroke-opacity:1;stroke-miterlimit:10;" d="M 84.886719 88.269531 L 63.707031 102.746094 "/>
<path style="fill:none;stroke-width:1.2;stroke-linecap:butt;stroke-linejoin:miter;stroke:rgb(0%,0%,100%);stroke-opacity:1;stroke-miterlimit:10;" d="M 39.925781 91.195312 L 45.316406 76.09375 "/>
<path style="fill:none;stroke-width:1.2;stroke-linecap:butt;stroke-linejoin:miter;stroke:rgb(0%,0%,0%);stroke-opacity:1;stroke-miterlimit:10;" d="M 45.316406 76.09375 L 50.710938 60.992188 "/>
<path style="fill:none;stroke-width:1.2;stroke-linecap:butt;stroke-linejoin:miter;stroke:rgb(0%,0%,100%);stroke-opacity:1;stroke-miterlimit:10;" d="M 48.109375 90.710938 L 52.425781 78.632812 "/>
<path style="fill:none;stroke-width:1.2;stroke-linecap:butt;stroke-linejoin:miter;stroke:rgb(0%,0%,0%);stroke-opacity:1;stroke-miterlimit:10;" d="M 52.425781 78.632812 L 56.738281 66.550781 "/>
<path style=" stroke:none;fill-rule:nonzero;fill:rgb(100%,100%,100%);fill-opacity:1;" d="M 34.925781 83.195312 L 44.925781 83.195312 L 44.925781 99.195312 L 34.925781 99.195312 Z M 34.925781 83.195312 "/>
<g style="fill:rgb(0%,0%,100%);fill-opacity:1;">
  <use xlink:href="#glyph0-2" x="34.925781" y="95.571289"/>
</g>
<path style="fill:none;stroke-width:1.2;stroke-linecap:butt;stroke-linejoin:miter;stroke:rgb(0%,0%,0%);stroke-opacity:1;stroke-miterlimit:10;" d="M 50.710938 60.992188 L 66.738281 61.453125 "/>
<path style="fill:none;stroke-width:1.2;stroke-linecap:butt;stroke-linejoin:miter;stroke:rgb(100%,0%,0%);stroke-opacity:1;stroke-miterlimit:10;" d="M 66.738281 61.453125 L 82.765625 61.914062 "/>
<path style="fill:none;stroke-width:1.2;stroke-linecap:butt;stroke-linejoin:miter;stroke:rgb(100%,0%,0%);stroke-opacity:1;stroke-miterlimit:10;" d="M 82.765625 61.914062 L 87.28125 77.300781 "/>
<path style="fill:none;stroke-width:1.2;stroke-linecap:butt;stroke-linejoin:miter;stroke:rgb(0%,0%,0%);stroke-opacity:1;stroke-miterlimit:10;" d="M 87.28125 77.300781 L 91.792969 92.6875 "/>
<path style=" stroke:none;fill-rule:nonzero;fill:rgb(100%,100%,100%);fill-opacity:1;" d="M 77.765625 53.914062 L 88.765625 53.914062 L 88.765625 69.914062 L 77.765625 69.914062 Z M 77.765625 53.914062 "/>
<g style="fill:rgb(100%,0%,0%);fill-opacity:1;">
  <use xlink:href="#glyph0-3" x="77.765625" y="66.290039"/>
</g>
<path style="fill:none;stroke-width:1.2;stroke-linecap:butt;stroke-linejoin:miter;stroke:rgb(0%,0%,0%);stroke-opacity:1;stroke-miterlimit:10;" d="M 91.792969 92.6875 L 121.996094 103.472656 "/>
<path style="fill:none;stroke-width:1.2;stroke-linecap:butt;stroke-linejoin:miter;stroke:rgb(0%,0%,0%);stroke-opacity:1;stroke-miterlimit:10;" d="M 121.996094 103.472656 L 127.757812 135.019531 "/>
<path style="fill:none;stroke-width:1.2;stroke-linecap:butt;stroke-linejoin:miter;stroke:rgb(0%,0%,0%);stroke-opacity:1;stroke-miterlimit:10;" d="M 129.996094 105.269531 L 134.605469 130.507812 "/>
<path style="fill:none;stroke-width:1.2;stroke-linecap:butt;stroke-linejoin:miter;stroke:rgb(0%,0%,0%);stroke-opacity:1;stroke-miterlimit:10;" d="M 146.433594 82.707031 L 121.996094 103.472656 "/>
<path style="fill:none;stroke-width:1.2;stroke-linecap:butt;stroke-linejoin:miter;stroke:rgb(0%,0%,0%);stroke-opacity:1;stroke-miterlimit:10;" d="M 127.757812 135.019531 L 157.960938 145.800781 "/>
<path style="fill:none;stroke-width:1.2;stroke-linecap:butt;stroke-linejoin:miter;stroke:rgb(0%,0%,0%);stroke-opacity:1;stroke-miterlimit:10;" d="M 157.960938 145.800781 L 164.058594 160.632812 "/>
<path style="fill:none;stroke-width:1.2;stroke-linecap:butt;stroke-linejoin:miter;stroke:rgb(0%,0%,100%);stroke-opacity:1;stroke-miterlimit:10;" d="M 164.058594 160.632812 L 170.15625 175.460938 "/>
<path style="fill:none;stroke-width:1.2;stroke-linecap:butt;stroke-linejoin:miter;stroke:rgb(0%,0%,0%);stroke-opacity:1;stroke-miterlimit:10;" d="M 182.398438 125.039062 L 157.960938 145.800781 "/>
<path style="fill:none;stroke-width:1.2;stroke-linecap:butt;stroke-linejoin:miter;stroke:rgb(0%,0%,0%);stroke-opacity:1;stroke-miterlimit:10;" d="M 175.070312 121.363281 L 155.519531 137.972656 "/>
<path style="fill:none;stroke-width:1.2;stroke-linecap:butt;stroke-linejoin:miter;stroke:rgb(0%,0%,100%);stroke-opacity:1;stroke-miterlimit:10;" d="M 170.15625 175.460938 L 161.742188 189.109375 "/>
<path style="fill:none;stroke-width:1.2;stroke-linecap:butt;stroke-linejoin:miter;stroke:rgb(0%,0%,0%);stroke-opacity:1;stroke-miterlimit:10;" d="M 161.742188 189.109375 L 153.328125 202.761719 "/>
<path style="fill:none;stroke-width:1.2;stroke-linecap:butt;stroke-linejoin:miter;stroke:rgb(0%,0%,100%);stroke-opacity:1;stroke-miterlimit:10;" d="M 170.15625 175.460938 L 186.144531 174.246094 "/>
<path style="fill:none;stroke-width:1.2;stroke-linecap:butt;stroke-linejoin:miter;stroke:rgb(0%,0%,0%);stroke-opacity:1;stroke-miterlimit:10;" d="M 186.144531 174.246094 L 202.132812 173.027344 "/>
<path style=" stroke:none;fill-rule:nonzero;fill:rgb(100%,100%,100%);fill-opacity:1;" d="M 165.15625 167.460938 L 175.15625 167.460938 L 175.15625 183.460938 L 165.15625 183.460938 Z M 165.15625 167.460938 "/>
<g style="fill:rgb(0%,0%,100%);fill-opacity:1;">
  <use xlink:href="#glyph0-2" x="165.15625" y="179.836914"/>
</g>
<path style="fill:none;stroke-width:1.2;stroke-linecap:butt;stroke-linejoin:miter;stroke:rgb(0%,0%,0%);stroke-opacity:1;stroke-miterlimit:10;" d="M 199.257812 175.46875 L 209.636719 187.691406 "/>
<path style="fill:none;stroke-width:1.2;stroke-linecap:butt;stroke-linejoin:miter;stroke:rgb(100%,0%,0%);stroke-opacity:1;stroke-miterlimit:10;" d="M 209.636719 187.691406 L 220.019531 199.910156 "/>
<path style="fill:none;stroke-width:1.2;stroke-linecap:butt;stroke-linejoin:miter;stroke:rgb(0%,0%,0%);stroke-opacity:1;stroke-miterlimit:10;" d="M 205.007812 170.585938 L 215.390625 182.804688 "/>
<path style="fill:none;stroke-width:1.2;stroke-linecap:butt;stroke-linejoin:miter;stroke:rgb(100%,0%,0%);stroke-opacity:1;stroke-miterlimit:10;" d="M 215.390625 182.804688 L 225.769531 195.023438 "/>
<path style="fill:none;stroke-width:1.2;stroke-linecap:butt;stroke-linejoin:miter;stroke:rgb(0%,0%,0%);stroke-opacity:1;stroke-miterlimit:10;" d="M 202.132812 173.027344 L 205.914062 157.445312 "/>
<path style="fill:none;stroke-width:1.2;stroke-linecap:butt;stroke-linejoin:miter;stroke:rgb(0%,0%,100%);stroke-opacity:1;stroke-miterlimit:10;" d="M 205.914062 157.445312 L 209.699219 141.863281 "/>
<path style=" stroke:none;fill-rule:nonzero;fill:rgb(100%,100%,100%);fill-opacity:1;" d="M 217.894531 189.46875 L 228.894531 189.46875 L 228.894531 205.46875 L 217.894531 205.46875 Z M 217.894531 189.46875 "/>
<g style="fill:rgb(100%,0%,0%);fill-opacity:1;">
  <use xlink:href="#glyph0-3" x="217.894531" y="201.844727"/>
</g>
<path style="fill:none;stroke-width:1.2;stroke-linecap:butt;stroke-linejoin:miter;stroke:rgb(0%,0%,100%);stroke-opacity:1;stroke-miterlimit:10;" d="M 209.699219 141.863281 L 196.050781 133.449219 "/>
<path style="fill:none;stroke-width:1.2;stroke-linecap:butt;stroke-linejoin:miter;stroke:rgb(0%,0%,0%);stroke-opacity:1;stroke-miterlimit:10;" d="M 196.050781 133.449219 L 182.398438 125.039062 "/>
<path style="fill:none;stroke-width:1.2;stroke-linecap:butt;stroke-linejoin:miter;stroke:rgb(0%,0%,100%);stroke-opacity:1;stroke-miterlimit:10;" d="M 209.699219 141.863281 L 224.527344 135.765625 "/>
<path style="fill:none;stroke-width:1.2;stroke-linecap:butt;stroke-linejoin:miter;stroke:rgb(0%,0%,0%);stroke-opacity:1;stroke-miterlimit:10;" d="M 224.527344 135.765625 L 239.359375 129.667969 "/>
<path style=" stroke:none;fill-rule:nonzero;fill:rgb(100%,100%,100%);fill-opacity:1;" d="M 204.699219 133.863281 L 214.699219 133.863281 L 214.699219 149.863281 L 204.699219 149.863281 Z M 204.699219 133.863281 "/>
<g style="fill:rgb(0%,0%,100%);fill-opacity:1;">
  <use xlink:href="#glyph0-2" x="204.699219" y="146.239258"/>
</g>
<path style="fill:none;stroke-width:1.2;stroke-linecap:butt;stroke-linejoin:miter;stroke:rgb(0%,0%,0%);stroke-opacity:1;stroke-miterlimit:10;" d="M 182.398438 125.039062 L 176.636719 93.492188 "/>
<path style="fill:none;stroke-width:1.2;stroke-linecap:butt;stroke-linejoin:miter;stroke:rgb(0%,0%,0%);stroke-opacity:1;stroke-miterlimit:10;" d="M 176.636719 93.492188 L 146.433594 82.707031 "/>
<path style="fill:none;stroke-width:1.2;stroke-linecap:butt;stroke-linejoin:miter;stroke:rgb(0%,0%,0%);stroke-opacity:1;stroke-miterlimit:10;" d="M 171.078125 99.519531 L 146.917969 90.890625 "/>
<path style="fill:none;stroke-width:1.2;stroke-linecap:butt;stroke-linejoin:miter;stroke:rgb(0%,0%,0%);stroke-opacity:1;stroke-miterlimit:10;" d="M 239.359375 129.667969 L 264.75 149.257812 "/>
<path style="fill:none;stroke-width:1.2;stroke-linecap:butt;stroke-linejoin:miter;stroke:rgb(0%,0%,0%);stroke-opacity:1;stroke-miterlimit:10;" d="M 239.359375 129.667969 L 243.625 97.886719 "/>
</g>
</svg>

<svg xmlns="http://www.w3.org/2000/svg" xmlns:xlink="http://www.w3.org/1999/xlink" width="300pt" height="300pt" viewBox="0 0 300 300"><defs><symbol overflow="visible"><path d="M.64 2.297v-11.47h6.5v11.47zm.735-.72h5.047V-8.436H1.375zm0 0"/></symbol><symbol overflow="visible" id="a"><path d="M1.28-9.484h5.44v1.093H2.562v2.78h3.75v1.08h-3.75V0H1.28zm0 0"/></symbol><symbol overflow="visible" id="b"><path d="M1.28-9.484H3l4.203 7.937v-7.937h1.25V0H6.72L2.515-7.922V0H1.28zm0 0"/></symbol><symbol overflow="visible" id="c"><path d="M5.125-8.61c-.938 0-1.684.352-2.234 1.047-.542.688-.812 1.633-.812 2.83 0 1.198.27 2.147.813 2.842.55.687 1.297 1.03 2.235 1.03.926 0 1.66-.343 2.203-1.03.55-.696.828-1.645.828-2.844 0-1.196-.277-2.14-.828-2.829-.543-.695-1.277-1.046-2.203-1.046zm0-1.046c1.32 0 2.38.45 3.172 1.344.8.898 1.203 2.09 1.203 3.578 0 1.5-.402 2.7-1.203 3.593C7.504-.255 6.445.186 5.125.186c-1.336 0-2.402-.44-3.203-1.328C1.13-2.036.734-3.235.734-4.735c0-1.49.395-2.68 1.188-3.579.8-.894 1.867-1.343 3.203-1.343zm0 0"/></symbol></defs><g><path fill="#fff" d="M0 0h300v300H0z"/><path d="M61.63 239.008l.46-16.028" stroke-width="1.2" stroke="#3cc" stroke-miterlimit="10" fill="none"/><path d="M62.09 222.98l.46-16.03" stroke-width="1.2" stroke="#000" stroke-miterlimit="10" fill="none"/><path d="M57.63 231.008h8v16h-8zm0 0" fill="#fff"/><use xlink:href="#a" x="57.629" y="243.384" fill="#3cc"/><path d="M62.55 206.95l-27.3-16.825M63.777 198.844l-21.84-13.46M90.773 191.723L62.55 206.95M35.25 190.125l.922-32.06M36.172 158.066l28.223-15.226M42.578 163.188l22.578-12.184M64.395 142.84l27.3 16.828M64.395 142.84l.92-32.055M91.695 159.668l-.922 32.055M84.06 162.656l-.74 25.645M65.316 110.785l-12.695-9.797" stroke-width="1.2" stroke="#000" stroke-miterlimit="10" fill="none"/><path d="M52.62 100.988l-12.694-9.793" stroke-width="1.2" stroke="#00f" stroke-miterlimit="10" fill="none"/><path d="M91.793 92.688l-26.477 18.097M84.887 88.27l-21.18 14.476" stroke-width="1.2" stroke="#000" stroke-miterlimit="10" fill="none"/><path d="M39.926 91.195l5.39-15.1" stroke-width="1.2" stroke="#00f" stroke-miterlimit="10" fill="none"/><path d="M45.316 76.094l5.395-15.102" stroke-width="1.2" stroke="#000" stroke-miterlimit="10" fill="none"/><path d="M48.11 90.71l4.316-12.077" stroke-width="1.2" stroke="#00f" stroke-miterlimit="10" fill="none"/><path d="M52.426 78.633l4.312-12.082" stroke-width="1.2" stroke="#000" stroke-miterlimit="10" fill="none"/><path d="M34.926 83.195h10v16h-10zm0 0" fill="#fff"/><use xlink:href="#b" x="34.926" y="95.571" fill="#00f"/><path d="M50.71 60.992l16.028.46" stroke-width="1.2" stroke="#000" stroke-miterlimit="10" fill="none"/><path d="M66.738 61.453l16.028.46M82.766 61.914L87.28 77.3" stroke-width="1.2" stroke="#f00" stroke-miterlimit="10" fill="none"/><path d="M87.28 77.3l4.513 15.388" stroke-width="1.2" stroke="#000" stroke-miterlimit="10" fill="none"/><path d="M77.766 53.914h11v16h-11zm0 0" fill="#fff"/><use xlink:href="#c" x="77.766" y="66.29" fill="#f00"/><path d="M91.793 92.688l30.203 10.785M121.996 103.473l5.762 31.547M129.996 105.27l4.61 25.238M146.434 82.707l-24.438 20.766M127.758 135.02l30.203 10.78M157.96 145.8l6.1 14.833" stroke-width="1.2" stroke="#000" stroke-miterlimit="10" fill="none"/><path d="M164.06 160.633l6.096 14.828" stroke-width="1.2" stroke="#00f" stroke-miterlimit="10" fill="none"/><path d="M182.398 125.04L157.96 145.8M175.07 121.363l-19.55 16.61" stroke-width="1.2" stroke="#000" stroke-miterlimit="10" fill="none"/><path d="M170.156 175.46l-8.414 13.65" stroke-width="1.2" stroke="#00f" stroke-miterlimit="10" fill="none"/><path d="M161.742 189.11l-8.414 13.652" stroke-width="1.2" stroke="#000" stroke-miterlimit="10" fill="none"/><path d="M170.156 175.46l15.99-1.214" stroke-width="1.2" stroke="#00f" stroke-miterlimit="10" fill="none"/><path d="M186.145 174.246l15.988-1.22" stroke-width="1.2" stroke="#000" stroke-miterlimit="10" fill="none"/><path d="M165.156 167.46h10v16h-10zm0 0" fill="#fff"/><use xlink:href="#b" x="165.156" y="179.837" fill="#00f"/><path d="M199.258 175.47l10.38 12.22" stroke-width="1.2" stroke="#000" stroke-miterlimit="10" fill="none"/><path d="M209.637 187.69l10.383 12.22" stroke-width="1.2" stroke="#f00" stroke-miterlimit="10" fill="none"/><path d="M205.008 170.586l10.383 12.22" stroke-width="1.2" stroke="#000" stroke-miterlimit="10" fill="none"/><path d="M215.39 182.805l10.38 12.218" stroke-width="1.2" stroke="#f00" stroke-miterlimit="10" fill="none"/><path d="M202.133 173.027l3.78-15.582" stroke-width="1.2" stroke="#000" stroke-miterlimit="10" fill="none"/><path d="M205.914 157.445l3.785-15.582" stroke-width="1.2" stroke="#00f" stroke-miterlimit="10" fill="none"/><path d="M217.895 189.47h11v16h-11zm0 0" fill="#fff"/><use xlink:href="#c" x="217.895" y="201.845" fill="#f00"/><path d="M209.7 141.863l-13.65-8.414" stroke-width="1.2" stroke="#00f" stroke-miterlimit="10" fill="none"/><path d="M196.05 133.45l-13.652-8.41" stroke-width="1.2" stroke="#000" stroke-miterlimit="10" fill="none"/><path d="M209.7 141.863l14.827-6.097" stroke-width="1.2" stroke="#00f" stroke-miterlimit="10" fill="none"/><path d="M224.527 135.766l14.832-6.098" stroke-width="1.2" stroke="#000" stroke-miterlimit="10" fill="none"/><path d="M204.7 133.863h10v16h-10zm0 0" fill="#fff"/><use xlink:href="#b" x="204.699" y="146.239" fill="#00f"/><path d="M182.398 125.04l-5.76-31.548M176.637 93.492l-30.203-10.785M171.078 99.52l-24.16-8.63M239.36 129.668l25.39 19.59M239.36 129.668l4.265-31.78" stroke-width="1.2" stroke="#000" stroke-miterlimit="10" fill="none"/></g></svg>
